contents/images/logos/posthog-icon-white.svg

<svg fill="none" height="300" viewBox="0 0 300 300" width="300" xmlns="http://www.w3.org/2000/svg"><path d="m0 0h300v300h-300z" fill="#000"/><path d="m33 179.379 39.0038 38.951h-39.0038zm0-9.738 48.7548 48.689h39.0042l-87.759-87.641zm0-48.69 97.51 97.379h39.003l-136.513-136.33zm48.7548 0 97.5092 97.379v-38.951l-97.5092-97.379zm48.7552-38.951v38.951l48.754 48.69v-38.952z" fill="#fff"/><path d="m266.863 203.174c-9.993 0-19.572-3.966-26.632-11.016l-54.231-54.158v80.754h80.863z" fill="#fff"/><path d="m209.563 202.75c4.308 0 7.8-3.488 7.8-7.791 0-4.302-3.492-7.79-7.8-7.79-4.309 0-7.801 3.488-7.801 7.79 0 4.303 3.492 7.791 7.801 7.791z" fill="#000"/><g fill="#fff"><path d="m33 218.33h39.0038l-39.0038-38.951z"/><path d="m81.7548 130.689-48.7548-48.689v38.951l48.7548 48.69z"/><path d="m33 130.689v38.952l48.7548 48.689v-38.951z"/><path d="m130.51 130.689-48.7552-48.689v38.951l48.7552 48.69z"/><path d="m81.7548 218.33h39.0042l-39.0042-38.951z"/><path d="m81.7548 130.689v38.952l48.7552 48.689v-38.951z"/></g></svg>

<svg width="300" height="300" viewBox="0 0 300 300" fill="none" xmlns="http://www.w3.org/2000/svg">
<rect width="300" height="300" fill="black"/>
<path d="M33 179.379L72.0038 218.33H33V179.379ZM33 169.641L81.7548 218.33H120.759L33 130.689V169.641ZM33 120.951L130.51 218.33H169.513L33 82V120.951ZM81.7548 120.951L179.264 218.33V179.379L81.7548 82V120.951ZM130.51 82V120.951L179.264 169.641V130.689L130.51 82Z" fill="white"/>
<path d="M266.863 203.174C256.87 203.174 247.291 199.208 240.231 192.158L186 138V218.754H266.863V203.174Z" fill="white"/>
<path d="M209.563 202.75C213.871 202.75 217.363 199.262 217.363 194.959C217.363 190.657 213.871 187.169 209.563 187.169C205.254 187.169 201.762 190.657 201.762 194.959C201.762 199.262 205.254 202.75 209.563 202.75Z" fill="black"/>
<path d="M33 218.33H72.0038L33 179.379V218.33Z" fill="white"/>
<path d="M81.7548 130.689L33 82V120.951L81.7548 169.641V130.689Z" fill="white"/>
<path d="M33 130.689V169.641L81.7548 218.33V179.379L33 130.689Z" fill="white"/>
<path d="M130.51 130.689L81.7548 82V120.951L130.51 169.641V130.689Z" fill="white"/>
<path d="M81.7548 218.33H120.759L81.7548 179.379V218.33Z" fill="white"/>
<path d="M81.7548 130.689V169.641L130.51 218.33V179.379L81.7548 130.689Z" fill="white"/>
</svg>
